X:1
T:Title
%%score ( 1 2 ) ( 3 4 )
L:1/8
Q:1/4=110
M:4/4
K:Ab
V:1 treble nm="Choir Aahs, Staff"
V:2 treble 
V:3 bass nm="Choir Aahs, Staff-1"
V:4 bass 
V:1
 E2 [EA]2 [EG]2 [EA]2 | z2 c2 z4 | [Ec]2 [EF]2 [EG]2 [EA]2 | [EF]2 [=DF]2 E4 | %4
w: By~John~Bacchus~Dykes * * *||||
 [Cc]2 [Ec]2 [EB]2 [EB]2 | [Dd]2 [Fd]2 [Fc]2 [Fc]2 | z4 B2 z2 | [EB]2 [DB]2 [CA]4 |] %8
w: ||||
V:2
 x8 | [EB]2 CD [Ec]2 [EB]2 | x8 | x8 | x8 | x8 | [_Ge]2 [FA]2 ED [Cc]2 | x8 |] %8
V:3
 [A,C]2 [E,C]2 [D,B,]2 [C,A,]2 | [B,,G,]2 [A,,A,]2 [E,A,]2 [E,G,]2 | %2
 [A,,A,]2 [A,C]2 [G,B,]2 [F,A,]2 | [B,,B,]2 [B,,A,]2 [E,G,]4 | z2 A,2 z4 | z2 B,2 z4 | %6
 [C,A,]2 [D,A,]2 [B,,G,]2 [A,,A,]2 | [E,A,]2 [E,G,]2 [A,,A,]4 |] %8
V:4
 x8 | x8 | x8 | x8 | [A,,A,]2 C,D, [E,G,]2 [E,G,]2 | [B,,B,]2 D,E, [F,A,]2 [F,A,]2 | x8 | x8 |] %8

